public/icons/map_marker.svg

<svg width="46" height="54" viewBox="0 0 46 54" fill="none" xmlns="http://www.w3.org/2000/svg">
<g filter="url(#filter0_d_646_9059)">
<path d="M25.7849 41.7218C25.2332 42.3538 24.6805 42.9569 24.1016 43.5402C23.4932 44.1533 22.5068 44.1533 21.8984 43.5402C21.3195 42.9569 20.7668 42.3538 20.2151 41.7218C19.0991 40.4434 17.6082 38.6578 16.1145 36.6334C14.6239 34.6132 13.112 32.3305 11.9678 30.0596C10.8367 27.8145 10 25.456 10 23.3176C10 14.8521 16.6666 10 23 10C29.3334 10 36 14.8521 36 23.3176C36 25.456 35.1633 27.8145 34.0322 30.0596C32.888 32.3305 31.3761 34.6132 29.8855 36.6334C28.3918 38.6578 26.9009 40.4434 25.7849 41.7218Z" fill="white"/>
</g>
<path d="M24.2853 31.8609C24.0307 32.1769 23.7756 32.4784 23.5084 32.7701C23.2276 33.0766 22.7724 33.0766 22.4916 32.7701C22.2244 32.4784 21.9693 32.1769 21.7147 31.8609C21.1996 31.2217 20.5115 30.3289 19.8221 29.3167C19.1341 28.3066 18.4363 27.1652 17.9082 26.0298C17.3862 24.9073 17 23.728 17 22.6588C17 18.426 20.0769 16 23 16C25.9231 16 29 18.426 29 22.6588C29 23.728 28.6138 24.9073 28.0918 26.0298C27.5637 27.1652 26.8659 28.3066 26.1779 29.3167C25.4885 30.3289 24.8004 31.2217 24.2853 31.8609Z" fill="white" stroke="white" stroke-width="1.5" stroke-linecap="round" stroke-linejoin="round"/>
<path d="M24.928 36.3919C24.546 36.838 24.1634 37.2637 23.7627 37.6754C23.3414 38.1082 22.6586 38.1082 22.2373 37.6754C21.8366 37.2637 21.454 36.838 21.072 36.3919C20.2993 35.4895 19.2672 34.229 18.2331 32.8C17.2012 31.374 16.1545 29.7627 15.3624 28.1597C14.5792 26.575 14 24.9101 14 23.4007C14 17.425 18.6153 14 23 14C27.3847 14 32 17.425 32 23.4007C32 24.9101 31.4208 26.575 30.6376 28.1597C29.8455 29.7627 28.7988 31.374 27.7669 32.8C26.7328 34.229 25.7007 35.4895 24.928 36.3919Z" fill="black"/>
<circle cx="23" cy="23" r="3" fill="white"/>
<defs>
<filter id="filter0_d_646_9059" x="0" y="0" width="46" height="54" filterUnits="userSpaceOnUse" color-interpolation-filters="sRGB">
<feFlood flood-opacity="0" result="BackgroundImageFix"/>
<feColorMatrix in="SourceAlpha" type="matrix" values="0 0 0 0 0 0 0 0 0 0 0 0 0 0 0 0 0 0 127 0" result="hardAlpha"/>
<feOffset/>
<feGaussianBlur stdDeviation="5"/>
<feComposite in2="hardAlpha" operator="out"/>
<feColorMatrix type="matrix" values="0 0 0 0 0 0 0 0 0 0 0 0 0 0 0 0 0 0 0.25 0"/>
<feBlend mode="normal" in2="BackgroundImageFix" result="effect1_dropShadow_646_9059"/>
<feBlend mode="normal" in="SourceGraphic" in2="effect1_dropShadow_646_9059" result="shape"/>
</filter>
</defs>
</svg>

<svg xmlns="http://www.w3.org/2000/svg" width="46" height="54" fill="none"><g filter="url(#a)"><path fill="#fff" d="M25.785 41.722a39 39 0 0 1-1.683 1.818 1.55 1.55 0 0 1-2.204 0 39 39 0 0 1-1.683-1.818 81 81 0 0 1-4.1-5.089c-1.491-2.02-3.003-4.303-4.147-6.573C10.837 27.815 10 25.456 10 23.318 10 14.852 16.667 10 23 10s13 4.852 13 13.318c0 2.138-.837 4.496-1.968 6.742-1.144 2.27-2.656 4.553-4.146 6.573a81 81 0 0 1-4.101 5.089"/></g><path fill="#fff" stroke="#fff" stroke-linecap="round" stroke-linejoin="round" stroke-width="1.5" d="M24.285 31.86c-.254.317-.51.618-.777.91a.677.677 0 0 1-1.016 0 19 19 0 0 1-.777-.91 40 40 0 0 1-1.893-2.543c-.688-1.01-1.386-2.152-1.914-3.287-.522-1.123-.908-2.302-.908-3.371C17 18.426 20.077 16 23 16s6 2.426 6 6.659c0 1.069-.386 2.248-.908 3.37-.528 1.136-1.226 2.278-1.914 3.288a40 40 0 0 1-1.893 2.544"/><path fill="#000" d="M24.928 36.392c-.382.446-.765.872-1.165 1.283a1.06 1.06 0 0 1-1.526 0c-.4-.411-.783-.837-1.165-1.283a57 57 0 0 1-2.839-3.592c-1.032-1.426-2.079-3.037-2.87-4.64C14.578 26.575 14 24.91 14 23.4c0-5.975 4.615-9.4 9-9.4s9 3.425 9 9.4c0 1.51-.58 3.175-1.362 4.76-.793 1.603-1.84 3.214-2.871 4.64a57 57 0 0 1-2.839 3.592"/><circle cx="23" cy="23" r="3" fill="#fff"/><defs><filter id="a" width="46" height="54" x="0" y="0" color-interpolation-filters="sRGB" filterUnits="userSpaceOnUse"><feFlood flood-opacity="0" result="BackgroundImageFix"/><feColorMatrix in="SourceAlpha" result="hardAlpha" values="0 0 0 0 0 0 0 0 0 0 0 0 0 0 0 0 0 0 127 0"/><feOffset/><feGaussianBlur stdDeviation="5"/><feComposite in2="hardAlpha" operator="out"/><feColorMatrix values="0 0 0 0 0 0 0 0 0 0 0 0 0 0 0 0 0 0 0.25 0"/><feBlend in2="BackgroundImageFix" result="effect1_dropShadow_646_9059"/><feBlend in="SourceGraphic" in2="effect1_dropShadow_646_9059" result="shape"/></filter></defs></svg>
